dist/flags/s/654.svg

<svg width="16" height="12" viewBox="0 0 16 12" fill="none" xmlns="http://www.w3.org/2000/svg">
<mask id="mask0" mask-type="alpha" maskUnits="userSpaceOnUse" x="0" y="0" width="16" height="12">
<rect width="16" height="12" fill="white"/>
</mask>
<g mask="url(#mask0)">
<path fill-rule="evenodd" clip-rule="evenodd" d="M0 0V12H16V0H0Z" fill="#2E42A5"/>
<mask id="mask1" mask-type="alpha" maskUnits="userSpaceOnUse" x="0" y="0" width="16" height="12">
<path fill-rule="evenodd" clip-rule="evenodd" d="M0 0V12H16V0H0Z" fill="white"/>
</mask>
<g mask="url(#mask1)">
<mask id="mask2" mask-type="alpha" maskUnits="userSpaceOnUse" x="0" y="0" width="9" height="7">
<rect width="9" height="7" fill="white"/>
</mask>
<g mask="url(#mask2)">
<path d="M-1.00214 6.49981L0.978339 7.36841L9.04494 0.944269L10.0896 -0.346497L7.97176 -0.636808L4.68159 2.13154L2.03334 3.99675L-1.00214 6.49981Z" fill="#F7FCFF"/>
<path d="M-0.731018 7.10849L0.277943 7.61255L9.71445 -0.466309H8.29775L-0.731018 7.10849Z" fill="#F50100"/>
<path d="M10.0021 6.49981L8.02166 7.36841L-0.0449371 0.944269L-1.08959 -0.346497L1.02824 -0.636808L4.31841 2.13154L6.96666 3.99675L10.0021 6.49981Z" fill="#F7FCFF"/>
<path d="M9.93457 6.93661L8.92561 7.44067L4.90745 3.9817L3.71615 3.59523L-1.1901 -0.342034H0.226597L5.13009 3.50178L6.43256 3.96519L9.93457 6.93661Z" fill="#F50100"/>
<mask id="path-10-outside-1" maskUnits="userSpaceOnUse" x="-1" y="-1" width="11" height="9" fill="black">
<rect fill="white" x="-1" y="-1" width="11" height="9"/>
<path fill-rule="evenodd" clip-rule="evenodd" d="M4.99226 0H3.99226V3H0V4H3.99226V7H4.99226V4H9V3H4.99226V0Z"/>
</mask>
<path fill-rule="evenodd" clip-rule="evenodd" d="M4.99226 0H3.99226V3H0V4H3.99226V7H4.99226V4H9V3H4.99226V0Z" fill="#F50100"/>
<path d="M3.99226 0V-0.75H3.24226V0H3.99226ZM4.99226 0H5.74226V-0.75H4.99226V0ZM3.99226 3V3.75H4.74226V3H3.99226ZM0 3V2.25H-0.75V3H0ZM0 4H-0.75V4.75H0V4ZM3.99226 4H4.74226V3.25H3.99226V4ZM3.99226 7H3.24226V7.75H3.99226V7ZM4.99226 7V7.75H5.74226V7H4.99226ZM4.99226 4V3.25H4.24226V4H4.99226ZM9 4V4.75H9.75V4H9ZM9 3H9.75V2.25H9V3ZM4.99226 3H4.24226V3.75H4.99226V3ZM3.99226 0.75H4.99226V-0.75H3.99226V0.75ZM4.74226 3V0H3.24226V3H4.74226ZM0 3.75H3.99226V2.25H0V3.75ZM0.75 4V3H-0.75V4H0.75ZM3.99226 3.25H0V4.75H3.99226V3.25ZM4.74226 7V4H3.24226V7H4.74226ZM4.99226 6.25H3.99226V7.75H4.99226V6.25ZM4.24226 4V7H5.74226V4H4.24226ZM9 3.25H4.99226V4.75H9V3.25ZM8.25 3V4H9.75V3H8.25ZM4.99226 3.75H9V2.25H4.99226V3.75ZM4.24226 0V3H5.74226V0H4.24226Z" fill="#F7FCFF" mask="url(#path-10-outside-1)"/>
</g>
<path d="M10.0228 4.89453H9.89777V5.01953C9.89777 5.27973 9.89658 5.53452 9.89543 5.78313C9.89268 6.37531 9.89009 6.93245 9.90405 7.44409C9.92388 8.17063 9.97717 8.81633 10.1139 9.35423C10.2507 9.89284 10.474 10.3344 10.8419 10.6401C11.2109 10.9467 11.7094 11.1033 12.3701 11.1033C13.0372 11.1033 13.5495 10.9086 13.9339 10.5587C14.3156 10.211 14.5598 9.72059 14.713 9.14853C15.0183 8.00869 14.9736 6.49877 14.8888 5.01241L14.8821 4.89453H14.764H10.0228Z" fill="#B7E1FF" stroke="#F7FCFF" stroke-width="0.25"/>
<mask id="mask3" mask-type="alpha" maskUnits="userSpaceOnUse" x="9" y="4" width="7" height="8">
<path d="M10.0228 4.89453H9.89777V5.01953C9.89777 5.27973 9.89658 5.53452 9.89543 5.78313C9.89268 6.37531 9.89009 6.93245 9.90405 7.44409C9.92388 8.17063 9.97717 8.81633 10.1139 9.35423C10.2507 9.89284 10.474 10.3344 10.8419 10.6401C11.2109 10.9467 11.7094 11.1033 12.3701 11.1033C13.0372 11.1033 13.5495 10.9086 13.9339 10.5587C14.3156 10.211 14.5598 9.72059 14.713 9.14853C15.0183 8.00869 14.9736 6.49877 14.8888 5.01241L14.8821 4.89453H14.764H10.0228Z" fill="white" stroke="white" stroke-width="0.25"/>
</mask>
<g mask="url(#mask3)">
<rect x="11.2" y="9.7998" width="3.6" height="1.2" fill="#2E42A5"/>
<g filter="url(#filter0_d)">
<rect x="8.79999" y="3.7998" width="7.2" height="3.6" fill="#FDFF00"/>
</g>
<path fill-rule="evenodd" clip-rule="evenodd" d="M12.4 7.03986C12.8639 7.03986 13.24 6.66378 13.24 6.19986C13.24 5.73594 12.8639 5.35986 12.4 5.35986C11.9361 5.35986 11.56 5.73594 11.56 6.19986C11.56 6.66378 11.9361 7.03986 12.4 7.03986Z" fill="#272727"/>
<path fill-rule="evenodd" clip-rule="evenodd" d="M10.0706 8.41172L10.6065 7.91805C10.6065 7.91805 11.3305 7.84525 11.4159 8.00506C11.5012 8.16488 11.4505 7.93125 11.5868 8.29813C11.723 8.665 11.7769 8.1405 11.8518 8.665C11.9268 9.18951 11.9902 9.37049 11.9902 9.4925C11.9902 9.61451 12.6725 9.97803 12.4108 10.2284C12.1491 10.4787 12.1375 11.0555 12.1375 11.2208C12.1375 11.3861 12.1169 11.4602 11.8518 11.4231C11.5868 11.3861 11.2644 11.518 11.2 11.518C11.1356 11.518 10.3584 11.3597 10.3584 11.0337C10.3584 10.7077 10.0706 8.41172 10.0706 8.41172Z" fill="#CE6201"/>
</g>
</g>
</g>
<defs>
<filter id="filter0_d" x="8.79999" y="3.7998" width="7.2" height="3.85" filterUnits="userSpaceOnUse" color-interpolation-filters="sRGB">
<feFlood flood-opacity="0" result="BackgroundImageFix"/>
<feColorMatrix in="SourceAlpha" type="matrix" values="0 0 0 0 0 0 0 0 0 0 0 0 0 0 0 0 0 0 127 0"/>
<feOffset dy="0.25"/>
<feColorMatrix type="matrix" values="0 0 0 0 0 0 0 0 0 0 0 0 0 0 0 0 0 0 0.5 0"/>
<feBlend mode="normal" in2="BackgroundImageFix" result="effect1_dropShadow"/>
<feBlend mode="normal" in="SourceGraphic" in2="effect1_dropShadow" result="shape"/>
</filter>
</defs>
</svg>

<svg width="16" height="12" fill="none" xmlns="http://www.w3.org/2000/svg">
  <mask id="a" maskUnits="userSpaceOnUse" x="0" y="0" width="16" height="12">
    <path fill="#fff" d="M0 0h16v12H0z"/>
  </mask>
  <g mask="url(#a)">
    <path fill-rule="evenodd" clip-rule="evenodd" d="M0 0v12h16V0H0z" fill="#2E42A5"/>
    <mask id="b" maskUnits="userSpaceOnUse" x="0" y="0" width="16" height="12">
      <path fill-rule="evenodd" clip-rule="evenodd" d="M0 0v12h16V0H0z" fill="#fff"/>
    </mask>
    <g mask="url(#b)">
      <mask id="c" maskUnits="userSpaceOnUse" x="0" y="0" width="9" height="7">
        <path fill="#fff" d="M0 0h9v7H0z"/>
      </mask>
      <g mask="url(#c)">
        <path d="M-1.002 6.5l1.98.869L9.045.944l1.045-1.29-2.118-.29-3.29 2.768-2.649 1.865L-1.002 6.5z" fill="#F7FCFF"/>
        <path d="M-.731 7.108l1.009.505 9.436-8.08H8.298L-.731 7.109z" fill="#F50100"/>
        <path d="M10.002 6.5l-1.98.869L-.045.944-1.09-.346l2.118-.29 3.29 2.768 2.649 1.865L10.002 6.5z" fill="#F7FCFF"/>
        <path d="M9.935 6.937l-1.01.504-4.018-3.46-1.19-.386L-1.19-.342H.227L5.13 3.502l1.303.463 3.502 2.972z" fill="#F50100"/>
        <mask id="d" maskUnits="userSpaceOnUse" x="-1" y="-1" width="11" height="9" fill="#000">
          <path fill="#fff" d="M-1-1h11v9H-1z"/>
          <path fill-rule="evenodd" clip-rule="evenodd" d="M4.992 0h-1v3H0v1h3.992v3h1V4H9V3H4.992V0z"/>
        </mask>
        <path fill-rule="evenodd" clip-rule="evenodd" d="M4.992 0h-1v3H0v1h3.992v3h1V4H9V3H4.992V0z" fill="#F50100"/>
        <path d="M3.992 0v-.75h-.75V0h.75zm1 0h.75v-.75h-.75V0zm-1 3v.75h.75V3h-.75zM0 3v-.75h-.75V3H0zm0 1h-.75v.75H0V4zm3.992 0h.75v-.75h-.75V4zm0 3h-.75v.75h.75V7zm1 0v.75h.75V7h-.75zm0-3v-.75h-.75V4h.75zM9 4v.75h.75V4H9zm0-1h.75v-.75H9V3zM4.992 3h-.75v.75h.75V3zm-1-2.25h1v-1.5h-1v1.5zM4.742 3V0h-1.5v3h1.5zM0 3.75h3.992v-1.5H0v1.5zM.75 4V3h-1.5v1h1.5zm3.242-.75H0v1.5h3.992v-1.5zM4.742 7V4h-1.5v3h1.5zm.25-.75h-1v1.5h1v-1.5zM4.242 4v3h1.5V4h-1.5zM9 3.25H4.992v1.5H9v-1.5zM8.25 3v1h1.5V3h-1.5zm-3.258.75H9v-1.5H4.992v1.5zM4.242 0v3h1.5V0h-1.5z" fill="#F7FCFF" mask="url(#d)"/>
      </g>
      <path d="M10.023 4.895h-.125v.125c0 .26-.001.515-.003.763-.002.592-.005 1.15.01 1.661.019.727.072 1.372.209 1.91.137.539.36.98.728 1.286.369.307.867.463 1.528.463.667 0 1.18-.194 1.564-.544.382-.348.626-.838.779-1.41.305-1.14.26-2.65.176-4.136l-.007-.118h-4.859z" fill="#B7E1FF" stroke="#F7FCFF" stroke-width=".25"/>
      <mask id="e" maskUnits="userSpaceOnUse" x="9" y="4" width="7" height="8">
        <path d="M10.023 4.895h-.125v.125c0 .26-.001.515-.003.763-.002.592-.005 1.15.01 1.661.019.727.072 1.372.209 1.91.137.539.36.98.728 1.286.369.307.867.463 1.528.463.667 0 1.18-.194 1.564-.544.382-.348.626-.838.779-1.41.305-1.14.26-2.65.176-4.136l-.007-.118h-4.859z" fill="#fff" stroke="#fff" stroke-width=".25"/>
      </mask>
      <g mask="url(#e)">
        <path fill="#2E42A5" d="M11.2 9.8h3.6V11h-3.6z"/>
        <g filter="url(#SH_-_Saint_Helena__filter0_d)">
          <path fill="#FDFF00" d="M8.8 3.8H16v3.6H8.8z"/>
        </g>
        <path fill-rule="evenodd" clip-rule="evenodd" d="M12.4 7.04a.84.84 0 100-1.68.84.84 0 000 1.68z" fill="#272727"/>
        <path fill-rule="evenodd" clip-rule="evenodd" d="M10.07 8.412l.537-.494s.724-.073.809.087c.085.16.034-.074.17.293.137.367.19-.157.266.367.075.525.138.706.138.828s.682.485.42.736c-.26.25-.273.827-.273.992 0 .165-.02.24-.285.202-.265-.037-.588.095-.652.095-.064 0-.842-.158-.842-.484 0-.326-.287-2.622-.287-2.622z" fill="#CE6201"/>
      </g>
    </g>
  </g>
  <defs>
    <filter id="SH_-_Saint_Helena__filter0_d" x="8.8" y="3.8" width="7.2" height="3.85" filterUnits="userSpaceOnUse" color-interpolation-filters="sRGB">
      <feFlood flood-opacity="0" result="BackgroundImageFix"/>
      <feColorMatrix in="SourceAlpha" values="0 0 0 0 0 0 0 0 0 0 0 0 0 0 0 0 0 0 127 0"/>
      <feOffset dy=".25"/>
      <feColorMatrix values="0 0 0 0 0 0 0 0 0 0 0 0 0 0 0 0 0 0 0.5 0"/>
      <feBlend in2="BackgroundImageFix" result="effect1_dropShadow"/>
      <feBlend in="SourceGraphic" in2="effect1_dropShadow" result="shape"/>
    </filter>
  </defs>
</svg>
